third_party/noto/noto_2/emoji_u1f4b5.svg

<svg enable-background="new 0 0 128 128" version="1.1" viewBox="0 0 128 128" xmlns="http://www.w3.org/2000/svg" xmlns:xlink="http://www.w3.org/1999/xlink"><path d="m119.65 102.09h-111.3c-2.4 0-4.35-1.95-4.35-4.35v-67.46c0-2.41 1.95-4.37 4.37-4.37h111.27c2.41 0 4.37 1.95 4.37 4.37v67.46c-0.01 2.4-1.96 4.35-4.36 4.35z" fill="#2E7D32"/><path d="m119.78 89.91h-111.56c-2.33 0-4.22-1.89-4.22-4.22v-55.41c0-2.41 1.95-4.37 4.37-4.37h111.27c2.41 0 4.37 1.95 4.37 4.37v55.41c-0.01 2.33-1.9 4.22-4.23 4.22z" fill="#66BB6A"/><path d="m39.68 65.37c0-1.23-0.43-2.27-1.29-3.11s-2.32-1.61-4.37-2.29c-2.85-0.87-4.93-2-6.23-3.4-1.31-1.4-1.96-3.18-1.96-5.33 0-2.2 0.64-4 1.92-5.4 1.28-1.41 3.04-2.24 5.27-2.51v-3.47c0-0.51 0.42-0.93 0.93-0.93h1.13c0.51 0 0.93 0.42 0.93 0.93v3.49c2.25 0.31 4 1.25 5.25 2.83 1.12 1.42 1.74 3.3 1.86 5.65 0.02 0.46-0.36 0.84-0.82 0.84h-2.07c-0.44 0-0.78-0.35-0.82-0.79-0.11-1.53-0.55-2.77-1.32-3.72-0.9-1.11-2.11-1.67-3.63-1.67-1.59 0-2.81 0.41-3.65 1.24-0.84 0.82-1.27 1.98-1.27 3.45 0 1.37 0.45 2.46 1.34 3.27s2.36 1.55 4.4 2.21 3.63 1.39 4.78 2.19c1.14 0.8 1.99 1.72 2.53 2.78s0.81 2.3 0.81 3.72c0 2.26-0.68 4.08-2.04 5.46s-3.26 2.2-5.71 2.45v2.9c0 0.51-0.42 0.93-0.93 0.93h-1.12c-0.51 0-0.93-0.42-0.93-0.93v-2.9c-2.49-0.23-4.44-1.11-5.85-2.66-1.26-1.38-1.96-3.2-2.09-5.45-0.03-0.46 0.36-0.84 0.82-0.84h2.09c0.42 0 0.78 0.31 0.81 0.73 0.11 1.51 0.59 2.7 1.44 3.57 0.98 1 2.36 1.51 4.16 1.51 1.75 0 3.13-0.42 4.14-1.27 0.99-0.87 1.49-2.02 1.49-3.48z" fill="#fff"/><polygon points="35.64 74.09 32.67 73.24 33.01 43.42 33.01 42.41 36 43.34 35.64 73.22" fill="#fff"/><circle cx="84.78" cy="57.91" r="18.5" fill="#2E7D32" opacity=".5"/><path d="m106.45 33.1c0.86 5.4 5.14 9.68 10.54 10.54v28.54c-5.4 0.86-9.68 5.14-10.54 10.54h-85.03c-1.1-5.11-5.26-9.05-10.42-9.87v-28.54c5.63-0.89 10.03-5.49 10.63-11.21h84.82m1.84-2h-88.6c0.01 0.22 0.02 0.44 0.02 0.67 0 5.91-4.79 10.7-10.7 10.7v32.23c5.68 0 10.33 4.43 10.68 10.03h88.61c0-5.91 4.79-10.7 10.7-10.7v-32.23c-5.92 0-10.71-4.79-10.71-10.7z" fill="#2E7D32"/><rect x="53" y="25.91" width="22.01" height="76.18" fill="#FFECB3"/><rect x="53" y="89.91" width="22.01" height="12.18" fill="#FFC06C"/><g display="none"><g display="inline"><g opacity=".6"><circle cx="64" cy="64" r="28" fill="none" opacity=".61" stroke="#000" stroke-miterlimit="10" stroke-width=".2625"/><line x1="83.5" x2="83.5" y2="128" fill="none" opacity=".61" stroke="#000" stroke-miterlimit="10"/><line x1="43.5" x2="43.5" y2="128" fill="none" opacity=".61" stroke="#000" stroke-miterlimit="10"/><line x1="63.5" x2="63.5" y2="128" fill="none" opacity=".61" stroke="#000" stroke-miterlimit="10"/><line x1="128" y1="64.5" y2="64.5" fill="none" opacity=".61" stroke="#000" stroke-miterlimit="10"/><line x1="128" y1="44.5" y2="44.5" fill="none" opacity=".61" stroke="#000" stroke-miterlimit="10"/><line x1="128" y1="83.5" y2="83.5" fill="none" opacity=".61" stroke="#000" stroke-miterlimit="10"/><line x1="128" y1="128" fill="none" opacity=".61" stroke="#000" stroke-miterlimit="10" stroke-width=".25"/><line x2="128" y1="128" fill="none" opacity=".61" stroke="#000" stroke-miterlimit="10" stroke-width=".25"/><g opacity=".61"><path d="M64,4.26c32.94,0,59.74,26.8,59.74,59.74S96.94,123.74,64,123.74S4.26,96.94,4.26,64S31.06,4.26,64,4.26 M64,4       C30.86,4,4,30.86,4,64s26.86,60,60,60s60-26.86,60-60S97.14,4,64,4L64,4z"/></g><path d="m115.5 108.47c0 4.43-3.59 8.03-8.03 8.03h-87.94c-4.43 0-8.03-3.59-8.03-8.03v-87.94c0-4.43 3.59-8.03 8.03-8.03h87.94c4.43 0 8.03 3.59 8.03 8.03v87.94z" fill="none" opacity=".61" stroke="#000" stroke-miterlimit="10"/><path d="m107.5 116.5c0 4.42-3.58 8-8 8h-72c-4.42 0-8-3.58-8-8v-104c0-4.42 3.58-8 8-8h72c4.42 0 8 3.58 8 8v104z" fill="none" opacity=".61" stroke="#000" stroke-miterlimit="10"/><path d="m123.5 98.27c0 5.65-4.58 10.23-10.23 10.23h-99.54c-5.65 0-10.23-4.58-10.23-10.23v-67.54c0-5.65 4.58-10.23 10.23-10.23h99.54c5.65 0 10.23 4.58 10.23 10.23v67.54z" fill="none" opacity=".61" stroke="#000" stroke-miterlimit="10"/></g><g opacity=".2"><defs><rect id="a" width="128" height="128" opacity=".2"/></defs><clipPath id="b"><use xlink:href="#a"/></clipPath><g clip-path="url(#b)"><g fill="none" stroke="#000" stroke-miterlimit="10"><line x1="-28.5" x2="-28.5" y1="160" y2="-32"/><line x1="-24.5" x2="-24.5" y1="160" y2="-32"/><line x1="-20.5" x2="-20.5" y1="160" y2="-32"/><line x1="-16.5" x2="-16.5" y1="160" y2="-32"/><line x1="-12.5" x2="-12.5" y1="160" y2="-32"/><line x1="-8.5" x2="-8.5" y1="160" y2="-32"/><line x1="-4.5" x2="-4.5" y1="160" y2="-32"/><line x1="-.5" x2="-.5" y1="160" y2="-32"/><line x1="3.5" x2="3.5" y1="160" y2="-32"/><line x1="7.5" x2="7.5" y1="160" y2="-32"/><line x1="11.5" x2="11.5" y1="160" y2="-32"/><line x1="15.5" x2="15.5" y1="160" y2="-32"/><line x1="19.5" x2="19.5" y1="160" y2="-32"/><line x1="23.5" x2="23.5" y1="160" y2="-32"/><line x1="27.5" x2="27.5" y1="160" y2="-32"/><line x1="31.5" x2="31.5" y1="160" y2="-32"/><line x1="35.5" x2="35.5" y1="160" y2="-32"/><line x1="39.5" x2="39.5" y1="160" y2="-32"/><line x1="43.5" x2="43.5" y1="160" y2="-32"/><line x1="47.5" x2="47.5" y1="160" y2="-32"/><line x1="51.5" x2="51.5" y1="160" y2="-32"/><line x1="55.5" x2="55.5" y1="160" y2="-32"/><line x1="59.5" x2="59.5" y1="160" y2="-32"/><line x1="63.5" x2="63.5" y1="160" y2="-32"/><line x1="67.5" x2="67.5" y1="160" y2="-32"/><line x1="71.5" x2="71.5" y1="160" y2="-32"/><line x1="75.5" x2="75.5" y1="160" y2="-32"/><line x1="79.5" x2="79.5" y1="160" y2="-32"/><line x1="83.5" x2="83.5" y1="160" y2="-32"/><line x1="87.5" x2="87.5" y1="160" y2="-32"/><line x1="91.5" x2="91.5" y1="160" y2="-32"/><line x1="95.5" x2="95.5" y1="160" y2="-32"/><line x1="99.5" x2="99.5" y1="160" y2="-32"/><line x1="103.5" x2="103.5" y1="160" y2="-32"/><line x1="107.5" x2="107.5" y1="160" y2="-32"/><line x1="111.5" x2="111.5" y1="160" y2="-32"/><line x1="115.5" x2="115.5" y1="160" y2="-32"/><line x1="119.5" x2="119.5" y1="160" y2="-32"/><line x1="123.5" x2="123.5" y1="160" y2="-32"/><line x1="127.5" x2="127.5" y1="160" y2="-32"/><line x1="131.5" x2="131.5" y1="160" y2="-32"/><line x1="135.5" x2="135.5" y1="160" y2="-32"/><line x1="136.5" x2="136.5" y1="166" y2="-26"/><line x1="143.5" x2="143.5" y1="160" y2="-32"/><line x1="147.5" x2="147.5" y1="160" y2="-32"/><line x1="151.5" x2="151.5" y1="160" y2="-32"/><line x1="155.5" x2="155.5" y1="160" y2="-32"/></g><g fill="none" stroke="#000" stroke-miterlimit="10"><line x1="-32" x2="160" y1="-27.5" y2="-27.5"/><line x1="-32" x2="160" y1="-23.5" y2="-23.5"/><line x1="-32" x2="160" y1="-19.5" y2="-19.5"/><line x1="-32" x2="160" y1="-15.5" y2="-15.5"/><line x1="-32" x2="160" y1="-11.5" y2="-11.5"/><line x1="-32" x2="160" y1="-7.5" y2="-7.5"/><line x1="-32" x2="160" y1="-3.5" y2="-3.5"/><line x1="-32" x2="160" y1=".5" y2=".5"/><line x1="-32" x2="160" y1="4.5" y2="4.5"/><line x1="-32" x2="160" y1="8.5" y2="8.5"/><line x1="-32" x2="160" y1="12.5" y2="12.5"/><line x1="-32" x2="160" y1="16.5" y2="16.5"/><line x1="-32" x2="160" y1="20.5" y2="20.5"/><line x1="-32" x2="160" y1="24.5" y2="24.5"/><line x1="-32" x2="160" y1="28.5" y2="28.5"/><line x1="-32" x2="160" y1="32.5" y2="32.5"/><line x1="-32" x2="160" y1="36.5" y2="36.5"/><line x1="-32" x2="160" y1="40.5" y2="40.5"/><line x1="-32" x2="160" y1="44.5" y2="44.5"/><line x1="-32" x2="160" y1="48.5" y2="48.5"/><line x1="-32" x2="160" y1="52.5" y2="52.5"/><line x1="-32" x2="160" y1="56.5" y2="56.5"/><line x1="-32" x2="160" y1="60.5" y2="60.5"/><line x1="-32" x2="160" y1="64.5" y2="64.5"/><line x1="-32" x2="160" y1="68.5" y2="68.5"/><line x1="-32" x2="160" y1="72.5" y2="72.5"/><line x1="-32" x2="160" y1="76.5" y2="76.5"/><line x1="-32" x2="160" y1="80.5" y2="80.5"/><line x1="-32" x2="160" y1="84.5" y2="84.5"/><line x1="-32" x2="160" y1="88.5" y2="88.5"/><line x1="-32" x2="160" y1="92.5" y2="92.5"/><line x1="-32" x2="160" y1="96.5" y2="96.5"/><line x1="-32" x2="160" y1="100.5" y2="100.5"/><line x1="-32" x2="160" y1="104.5" y2="104.5"/><line x1="-32" x2="160" y1="108.5" y2="108.5"/><line x1="-32" x2="160" y1="112.5" y2="112.5"/><line x1="-32" x2="160" y1="116.5" y2="116.5"/><line x1="-32" x2="160" y1="120.5" y2="120.5"/><line x1="-32" x2="160" y1="124.5" y2="124.5"/><line x1="-32" x2="160" y1="128.5" y2="128.5"/><line x1="-32" x2="160" y1="132.5" y2="132.5"/><line x1="-32" x2="160" y1="136.5" y2="136.5"/><line x1="-32" x2="160" y1="140.5" y2="140.5"/><line x1="-32" x2="160" y1="144.5" y2="144.5"/><line x1="-32" x2="160" y1="148.5" y2="148.5"/><line x1="-32" x2="160" y1="152.5" y2="152.5"/><line x1="-32" x2="160" y1="156.5" y2="156.5"/></g><path d="m160-32v192h-192v-192h192m0 0h-192v192h192v-192z"/></g></g><g fill="#F44336"><rect width="4" height="128" opacity=".3"/><rect x="124" width="4" height="128" opacity=".3"/><rect transform="matrix(-1.837e-16 1 -1 -1.837e-16 66 -62)" x="62" y="-58" width="4" height="120" opacity=".3"/><rect transform="matrix(-1.837e-16 1 -1 -1.837e-16 190 62)" x="62" y="66" width="4" height="120" opacity=".3"/></g></g></g></svg>

<?xml version="1.0" encoding="utf-8"?>
<!-- Generator: Adobe Illustrator 25.2.3, SVG Export Plug-In . SVG Version: 6.00 Build 0)  -->
<svg version="1.1" xmlns="http://www.w3.org/2000/svg" xmlns:xlink="http://www.w3.org/1999/xlink" x="0px" y="0px"
	 viewBox="0 0 128 128" style="enable-background:new 0 0 128 128;" xml:space="preserve">
<g id="Layer_1">
	<g>
		<path style="fill:#2E7D32;" d="M119.65,102.09H8.35c-2.4,0-4.35-1.95-4.35-4.35V30.28c0-2.41,1.95-4.37,4.37-4.37h111.27
			c2.41,0,4.37,1.95,4.37,4.37v67.46C124,100.14,122.05,102.09,119.65,102.09z"/>
		<path style="fill:#66BB6A;" d="M119.78,89.91H8.22C5.89,89.91,4,88.02,4,85.69V30.28c0-2.41,1.95-4.37,4.37-4.37h111.27
			c2.41,0,4.37,1.95,4.37,4.37v55.41C124,88.02,122.11,89.91,119.78,89.91z"/>
		<g>
			<g>
				<path style="fill:#FFFFFF;" d="M39.68,65.37c0-1.23-0.43-2.27-1.29-3.11s-2.32-1.61-4.37-2.29c-2.85-0.87-4.93-2-6.23-3.4
					c-1.31-1.4-1.96-3.18-1.96-5.33c0-2.2,0.64-4,1.92-5.4c1.28-1.41,3.04-2.24,5.27-2.51v-3.47c0-0.51,0.42-0.93,0.93-0.93h1.13
					c0.51,0,0.93,0.42,0.93,0.93v3.49c2.25,0.31,4,1.25,5.25,2.83c1.12,1.42,1.74,3.3,1.86,5.65c0.02,0.46-0.36,0.84-0.82,0.84
					h-2.07c-0.44,0-0.78-0.35-0.82-0.79c-0.11-1.53-0.55-2.77-1.32-3.72c-0.9-1.11-2.11-1.67-3.63-1.67c-1.59,0-2.81,0.41-3.65,1.24
					c-0.84,0.82-1.27,1.98-1.27,3.45c0,1.37,0.45,2.46,1.34,3.27c0.89,0.81,2.36,1.55,4.4,2.21c2.04,0.66,3.63,1.39,4.78,2.19
					c1.14,0.8,1.99,1.72,2.53,2.78c0.54,1.06,0.81,2.3,0.81,3.72c0,2.26-0.68,4.08-2.04,5.46c-1.36,1.38-3.26,2.2-5.71,2.45v2.9
					c0,0.51-0.42,0.93-0.93,0.93H33.6c-0.51,0-0.93-0.42-0.93-0.93v-2.9c-2.49-0.23-4.44-1.11-5.85-2.66
					c-1.26-1.38-1.96-3.2-2.09-5.45c-0.03-0.46,0.36-0.84,0.82-0.84h2.09c0.42,0,0.78,0.31,0.81,0.73c0.11,1.51,0.59,2.7,1.44,3.57
					c0.98,1,2.36,1.51,4.16,1.51c1.75,0,3.13-0.42,4.14-1.27C39.18,67.98,39.68,66.83,39.68,65.37z"/>
			</g>
			<polygon style="fill:#FFFFFF;" points="35.64,74.09 32.67,73.24 33.01,43.42 33.01,42.41 36,43.34 35.64,73.22 			"/>
		</g>
		<circle style="opacity:0.5;fill:#2E7D32;" cx="84.78" cy="57.91" r="18.5"/>
		<g>
			<g>
				<path style="fill:#2E7D32;" d="M106.45,33.1c0.86,5.4,5.14,9.68,10.54,10.54v28.54c-5.4,0.86-9.68,5.14-10.54,10.54H21.42
					c-1.1-5.11-5.26-9.05-10.42-9.87V44.31c5.63-0.89,10.03-5.49,10.63-11.21H106.45 M108.29,31.1H19.69
					c0.01,0.22,0.02,0.44,0.02,0.67c0,5.91-4.79,10.7-10.7,10.7v32.23c5.68,0,10.33,4.43,10.68,10.03h88.61
					c0-5.91,4.79-10.7,10.7-10.7V41.8C113.08,41.8,108.29,37.01,108.29,31.1L108.29,31.1z"/>
			</g>
		</g>
		<rect x="53" y="25.91" style="fill:#FFECB3;" width="22.01" height="76.18"/>
		<rect x="53" y="89.91" style="fill:#FFC06C;" width="22.01" height="12.18"/>
	</g>
</g>
<g id="Layer_2" style="display:none;">
	<g style="display:inline;">
		<g style="opacity:0.6;">
			<circle style="opacity:0.61;fill:none;stroke:#000000;stroke-width:0.2625;stroke-miterlimit:10;" cx="64" cy="64" r="28"/>
			<line style="opacity:0.61;fill:none;stroke:#000000;stroke-miterlimit:10;" x1="83.5" y1="0" x2="83.5" y2="128"/>
			<line style="opacity:0.61;fill:none;stroke:#000000;stroke-miterlimit:10;" x1="43.5" y1="0" x2="43.5" y2="128"/>
			<line style="opacity:0.61;fill:none;stroke:#000000;stroke-miterlimit:10;" x1="63.5" y1="0" x2="63.5" y2="128"/>
			<line style="opacity:0.61;fill:none;stroke:#000000;stroke-miterlimit:10;" x1="128" y1="64.5" x2="0" y2="64.5"/>
			<line style="opacity:0.61;fill:none;stroke:#000000;stroke-miterlimit:10;" x1="128" y1="44.5" x2="0" y2="44.5"/>
			<line style="opacity:0.61;fill:none;stroke:#000000;stroke-miterlimit:10;" x1="128" y1="83.5" x2="0" y2="83.5"/>
			<line style="opacity:0.61;fill:none;stroke:#000000;stroke-width:0.25;stroke-miterlimit:10;" x1="128" y1="128" x2="0" y2="0"/>
			<line style="opacity:0.61;fill:none;stroke:#000000;stroke-width:0.25;stroke-miterlimit:10;" x1="0" y1="128" x2="128" y2="0"/>
			<g style="opacity:0.61;">
				<g>
					<path d="M64,4.26c32.94,0,59.74,26.8,59.74,59.74S96.94,123.74,64,123.74S4.26,96.94,4.26,64S31.06,4.26,64,4.26 M64,4
						C30.86,4,4,30.86,4,64s26.86,60,60,60s60-26.86,60-60S97.14,4,64,4L64,4z"/>
				</g>
			</g>
			<path style="opacity:0.61;fill:none;stroke:#000000;stroke-miterlimit:10;" d="M115.5,108.47c0,4.43-3.59,8.03-8.03,8.03H19.53
				c-4.43,0-8.03-3.59-8.03-8.03V20.53c0-4.43,3.59-8.03,8.03-8.03h87.94c4.43,0,8.03,3.59,8.03,8.03V108.47z"/>
			<path style="opacity:0.61;fill:none;stroke:#000000;stroke-miterlimit:10;" d="M107.5,116.5c0,4.42-3.58,8-8,8h-72
				c-4.42,0-8-3.58-8-8v-104c0-4.42,3.58-8,8-8h72c4.42,0,8,3.58,8,8V116.5z"/>
			<path style="opacity:0.61;fill:none;stroke:#000000;stroke-miterlimit:10;" d="M123.5,98.27c0,5.65-4.58,10.23-10.23,10.23H13.73
				c-5.65,0-10.23-4.58-10.23-10.23V30.73c0-5.65,4.58-10.23,10.23-10.23h99.54c5.65,0,10.23,4.58,10.23,10.23V98.27z"/>
		</g>
		<g>
			<g style="opacity:0.2;">
				<defs>
					<rect id="SVGID_2_" x="0" style="opacity:0.2;" width="128" height="128"/>
				</defs>
				<clipPath id="SVGID_1_">
					<use xlink:href="#SVGID_2_"  style="overflow:visible;"/>
				</clipPath>
				<g style="clip-path:url(#SVGID_1_);">
					<g>
						<line style="fill:none;stroke:#000000;stroke-miterlimit:10;" x1="-28.5" y1="160" x2="-28.5" y2="-32"/>
						<line style="fill:none;stroke:#000000;stroke-miterlimit:10;" x1="-24.5" y1="160" x2="-24.5" y2="-32"/>
						<line style="fill:none;stroke:#000000;stroke-miterlimit:10;" x1="-20.5" y1="160" x2="-20.5" y2="-32"/>
						<line style="fill:none;stroke:#000000;stroke-miterlimit:10;" x1="-16.5" y1="160" x2="-16.5" y2="-32"/>
						<line style="fill:none;stroke:#000000;stroke-miterlimit:10;" x1="-12.5" y1="160" x2="-12.5" y2="-32"/>
						<line style="fill:none;stroke:#000000;stroke-miterlimit:10;" x1="-8.5" y1="160" x2="-8.5" y2="-32"/>
						<line style="fill:none;stroke:#000000;stroke-miterlimit:10;" x1="-4.5" y1="160" x2="-4.5" y2="-32"/>
						<line style="fill:none;stroke:#000000;stroke-miterlimit:10;" x1="-0.5" y1="160" x2="-0.5" y2="-32"/>
						<line style="fill:none;stroke:#000000;stroke-miterlimit:10;" x1="3.5" y1="160" x2="3.5" y2="-32"/>
						<line style="fill:none;stroke:#000000;stroke-miterlimit:10;" x1="7.5" y1="160" x2="7.5" y2="-32"/>
						<line style="fill:none;stroke:#000000;stroke-miterlimit:10;" x1="11.5" y1="160" x2="11.5" y2="-32"/>
						<line style="fill:none;stroke:#000000;stroke-miterlimit:10;" x1="15.5" y1="160" x2="15.5" y2="-32"/>
						<line style="fill:none;stroke:#000000;stroke-miterlimit:10;" x1="19.5" y1="160" x2="19.5" y2="-32"/>
						<line style="fill:none;stroke:#000000;stroke-miterlimit:10;" x1="23.5" y1="160" x2="23.5" y2="-32"/>
						<line style="fill:none;stroke:#000000;stroke-miterlimit:10;" x1="27.5" y1="160" x2="27.5" y2="-32"/>
						<line style="fill:none;stroke:#000000;stroke-miterlimit:10;" x1="31.5" y1="160" x2="31.5" y2="-32"/>
						<line style="fill:none;stroke:#000000;stroke-miterlimit:10;" x1="35.5" y1="160" x2="35.5" y2="-32"/>
						<line style="fill:none;stroke:#000000;stroke-miterlimit:10;" x1="39.5" y1="160" x2="39.5" y2="-32"/>
						<line style="fill:none;stroke:#000000;stroke-miterlimit:10;" x1="43.5" y1="160" x2="43.5" y2="-32"/>
						<line style="fill:none;stroke:#000000;stroke-miterlimit:10;" x1="47.5" y1="160" x2="47.5" y2="-32"/>
						<line style="fill:none;stroke:#000000;stroke-miterlimit:10;" x1="51.5" y1="160" x2="51.5" y2="-32"/>
						<line style="fill:none;stroke:#000000;stroke-miterlimit:10;" x1="55.5" y1="160" x2="55.5" y2="-32"/>
						<line style="fill:none;stroke:#000000;stroke-miterlimit:10;" x1="59.5" y1="160" x2="59.5" y2="-32"/>
						<line style="fill:none;stroke:#000000;stroke-miterlimit:10;" x1="63.5" y1="160" x2="63.5" y2="-32"/>
						<line style="fill:none;stroke:#000000;stroke-miterlimit:10;" x1="67.5" y1="160" x2="67.5" y2="-32"/>
						<line style="fill:none;stroke:#000000;stroke-miterlimit:10;" x1="71.5" y1="160" x2="71.5" y2="-32"/>
						<line style="fill:none;stroke:#000000;stroke-miterlimit:10;" x1="75.5" y1="160" x2="75.5" y2="-32"/>
						<line style="fill:none;stroke:#000000;stroke-miterlimit:10;" x1="79.5" y1="160" x2="79.5" y2="-32"/>
						<line style="fill:none;stroke:#000000;stroke-miterlimit:10;" x1="83.5" y1="160" x2="83.5" y2="-32"/>
						<line style="fill:none;stroke:#000000;stroke-miterlimit:10;" x1="87.5" y1="160" x2="87.5" y2="-32"/>
						<line style="fill:none;stroke:#000000;stroke-miterlimit:10;" x1="91.5" y1="160" x2="91.5" y2="-32"/>
						<line style="fill:none;stroke:#000000;stroke-miterlimit:10;" x1="95.5" y1="160" x2="95.5" y2="-32"/>
						<line style="fill:none;stroke:#000000;stroke-miterlimit:10;" x1="99.5" y1="160" x2="99.5" y2="-32"/>
						<line style="fill:none;stroke:#000000;stroke-miterlimit:10;" x1="103.5" y1="160" x2="103.5" y2="-32"/>
						<line style="fill:none;stroke:#000000;stroke-miterlimit:10;" x1="107.5" y1="160" x2="107.5" y2="-32"/>
						<line style="fill:none;stroke:#000000;stroke-miterlimit:10;" x1="111.5" y1="160" x2="111.5" y2="-32"/>
						<line style="fill:none;stroke:#000000;stroke-miterlimit:10;" x1="115.5" y1="160" x2="115.5" y2="-32"/>
						<line style="fill:none;stroke:#000000;stroke-miterlimit:10;" x1="119.5" y1="160" x2="119.5" y2="-32"/>
						<line style="fill:none;stroke:#000000;stroke-miterlimit:10;" x1="123.5" y1="160" x2="123.5" y2="-32"/>
						<line style="fill:none;stroke:#000000;stroke-miterlimit:10;" x1="127.5" y1="160" x2="127.5" y2="-32"/>
						<line style="fill:none;stroke:#000000;stroke-miterlimit:10;" x1="131.5" y1="160" x2="131.5" y2="-32"/>
						<line style="fill:none;stroke:#000000;stroke-miterlimit:10;" x1="135.5" y1="160" x2="135.5" y2="-32"/>
						<line style="fill:none;stroke:#000000;stroke-miterlimit:10;" x1="136.5" y1="166" x2="136.5" y2="-26"/>
						<line style="fill:none;stroke:#000000;stroke-miterlimit:10;" x1="143.5" y1="160" x2="143.5" y2="-32"/>
						<line style="fill:none;stroke:#000000;stroke-miterlimit:10;" x1="147.5" y1="160" x2="147.5" y2="-32"/>
						<line style="fill:none;stroke:#000000;stroke-miterlimit:10;" x1="151.5" y1="160" x2="151.5" y2="-32"/>
						<line style="fill:none;stroke:#000000;stroke-miterlimit:10;" x1="155.5" y1="160" x2="155.5" y2="-32"/>
					</g>
					<g>
						<line style="fill:none;stroke:#000000;stroke-miterlimit:10;" x1="-32" y1="-27.5" x2="160" y2="-27.5"/>
						<line style="fill:none;stroke:#000000;stroke-miterlimit:10;" x1="-32" y1="-23.5" x2="160" y2="-23.5"/>
						<line style="fill:none;stroke:#000000;stroke-miterlimit:10;" x1="-32" y1="-19.5" x2="160" y2="-19.5"/>
						<line style="fill:none;stroke:#000000;stroke-miterlimit:10;" x1="-32" y1="-15.5" x2="160" y2="-15.5"/>
						<line style="fill:none;stroke:#000000;stroke-miterlimit:10;" x1="-32" y1="-11.5" x2="160" y2="-11.5"/>
						<line style="fill:none;stroke:#000000;stroke-miterlimit:10;" x1="-32" y1="-7.5" x2="160" y2="-7.5"/>
						<line style="fill:none;stroke:#000000;stroke-miterlimit:10;" x1="-32" y1="-3.5" x2="160" y2="-3.5"/>
						<line style="fill:none;stroke:#000000;stroke-miterlimit:10;" x1="-32" y1="0.5" x2="160" y2="0.5"/>
						<line style="fill:none;stroke:#000000;stroke-miterlimit:10;" x1="-32" y1="4.5" x2="160" y2="4.5"/>
						<line style="fill:none;stroke:#000000;stroke-miterlimit:10;" x1="-32" y1="8.5" x2="160" y2="8.5"/>
						<line style="fill:none;stroke:#000000;stroke-miterlimit:10;" x1="-32" y1="12.5" x2="160" y2="12.5"/>
						<line style="fill:none;stroke:#000000;stroke-miterlimit:10;" x1="-32" y1="16.5" x2="160" y2="16.5"/>
						<line style="fill:none;stroke:#000000;stroke-miterlimit:10;" x1="-32" y1="20.5" x2="160" y2="20.5"/>
						<line style="fill:none;stroke:#000000;stroke-miterlimit:10;" x1="-32" y1="24.5" x2="160" y2="24.5"/>
						<line style="fill:none;stroke:#000000;stroke-miterlimit:10;" x1="-32" y1="28.5" x2="160" y2="28.5"/>
						<line style="fill:none;stroke:#000000;stroke-miterlimit:10;" x1="-32" y1="32.5" x2="160" y2="32.5"/>
						<line style="fill:none;stroke:#000000;stroke-miterlimit:10;" x1="-32" y1="36.5" x2="160" y2="36.5"/>
						<line style="fill:none;stroke:#000000;stroke-miterlimit:10;" x1="-32" y1="40.5" x2="160" y2="40.5"/>
						<line style="fill:none;stroke:#000000;stroke-miterlimit:10;" x1="-32" y1="44.5" x2="160" y2="44.5"/>
						<line style="fill:none;stroke:#000000;stroke-miterlimit:10;" x1="-32" y1="48.5" x2="160" y2="48.5"/>
						<line style="fill:none;stroke:#000000;stroke-miterlimit:10;" x1="-32" y1="52.5" x2="160" y2="52.5"/>
						<line style="fill:none;stroke:#000000;stroke-miterlimit:10;" x1="-32" y1="56.5" x2="160" y2="56.5"/>
						<line style="fill:none;stroke:#000000;stroke-miterlimit:10;" x1="-32" y1="60.5" x2="160" y2="60.5"/>
						<line style="fill:none;stroke:#000000;stroke-miterlimit:10;" x1="-32" y1="64.5" x2="160" y2="64.5"/>
						<line style="fill:none;stroke:#000000;stroke-miterlimit:10;" x1="-32" y1="68.5" x2="160" y2="68.5"/>
						<line style="fill:none;stroke:#000000;stroke-miterlimit:10;" x1="-32" y1="72.5" x2="160" y2="72.5"/>
						<line style="fill:none;stroke:#000000;stroke-miterlimit:10;" x1="-32" y1="76.5" x2="160" y2="76.5"/>
						<line style="fill:none;stroke:#000000;stroke-miterlimit:10;" x1="-32" y1="80.5" x2="160" y2="80.5"/>
						<line style="fill:none;stroke:#000000;stroke-miterlimit:10;" x1="-32" y1="84.5" x2="160" y2="84.5"/>
						<line style="fill:none;stroke:#000000;stroke-miterlimit:10;" x1="-32" y1="88.5" x2="160" y2="88.5"/>
						<line style="fill:none;stroke:#000000;stroke-miterlimit:10;" x1="-32" y1="92.5" x2="160" y2="92.5"/>
						<line style="fill:none;stroke:#000000;stroke-miterlimit:10;" x1="-32" y1="96.5" x2="160" y2="96.5"/>
						<line style="fill:none;stroke:#000000;stroke-miterlimit:10;" x1="-32" y1="100.5" x2="160" y2="100.5"/>
						<line style="fill:none;stroke:#000000;stroke-miterlimit:10;" x1="-32" y1="104.5" x2="160" y2="104.5"/>
						<line style="fill:none;stroke:#000000;stroke-miterlimit:10;" x1="-32" y1="108.5" x2="160" y2="108.5"/>
						<line style="fill:none;stroke:#000000;stroke-miterlimit:10;" x1="-32" y1="112.5" x2="160" y2="112.5"/>
						<line style="fill:none;stroke:#000000;stroke-miterlimit:10;" x1="-32" y1="116.5" x2="160" y2="116.5"/>
						<line style="fill:none;stroke:#000000;stroke-miterlimit:10;" x1="-32" y1="120.5" x2="160" y2="120.5"/>
						<line style="fill:none;stroke:#000000;stroke-miterlimit:10;" x1="-32" y1="124.5" x2="160" y2="124.5"/>
						<line style="fill:none;stroke:#000000;stroke-miterlimit:10;" x1="-32" y1="128.5" x2="160" y2="128.5"/>
						<line style="fill:none;stroke:#000000;stroke-miterlimit:10;" x1="-32" y1="132.5" x2="160" y2="132.5"/>
						<line style="fill:none;stroke:#000000;stroke-miterlimit:10;" x1="-32" y1="136.5" x2="160" y2="136.5"/>
						<line style="fill:none;stroke:#000000;stroke-miterlimit:10;" x1="-32" y1="140.5" x2="160" y2="140.5"/>
						<line style="fill:none;stroke:#000000;stroke-miterlimit:10;" x1="-32" y1="144.5" x2="160" y2="144.5"/>
						<line style="fill:none;stroke:#000000;stroke-miterlimit:10;" x1="-32" y1="148.5" x2="160" y2="148.5"/>
						<line style="fill:none;stroke:#000000;stroke-miterlimit:10;" x1="-32" y1="152.5" x2="160" y2="152.5"/>
						<line style="fill:none;stroke:#000000;stroke-miterlimit:10;" x1="-32" y1="156.5" x2="160" y2="156.5"/>
					</g>
					<g>
						<path d="M160-32v192H-32V-32H160 M160-32H-32v192h192V-32L160-32z"/>
					</g>
				</g>
			</g>
			<g>
				<rect x="0" style="opacity:0.3;fill:#F44336;" width="4" height="128"/>
				<rect x="124" style="opacity:0.3;fill:#F44336;" width="4" height="128"/>
				
					<rect x="62" y="-58" transform="matrix(-1.836970e-16 1 -1 -1.836970e-16 66 -62)" style="opacity:0.3;fill:#F44336;" width="4" height="120"/>
				
					<rect x="62" y="66" transform="matrix(-1.836970e-16 1 -1 -1.836970e-16 190 62)" style="opacity:0.3;fill:#F44336;" width="4" height="120"/>
			</g>
		</g>
	</g>
</g>
</svg>
